X: 30674
T: Ophelia
R: reel
M: 4/4
K: Amixolydian
efed acde-|efed adef|G3 g fdAG-|GAde Aagf|
dfed acde-|efed aded|Gggf fddA|AGde eagf:|
adef a3 f|edad cdec|Bgfd G3 A|GAde cdef|
adef a3 f|edad cdec|Gggf fddA|AGde eagf:|

